outputs/icons/communication/add_call_sharp.svg

<svg width="1200" height="1200" viewBox="0 0 1200 1200" fill="none" xmlns="http://www.w3.org/2000/svg"><g clip-path="url(#clip0_124_708)"><path d="M1049.995 300H899.995V150H799.995V300H649.995V400H799.995V550H899.995V400H1049.995V300ZM1049.995 773L786.495 742.5L660.495 868.5C518.995 796.5 402.995 681 330.995 539L457.495 412.5L426.995 150H151.495C122.495 659 540.995 1077.5 1049.995 1048.5V773Z" fill="#1D1E23"/></g><defs><clipPath id="clip0_124_708"><path width="24" fill="white" d="M0 0H1200V1200H0V0z"/></clipPath></defs></svg>

<svg xmlns="http://www.w3.org/2000/svg" width="1200" height="1200" fill="none"><g clip-path="url(#a)"><path fill="#000" d="M1049.995 300h-150V150h-100v150h-150v100h150v150h100V400h150zm0 473-263.5-30.5-126 126c-141.5-72-257.5-187.5-329.5-329.5l126.5-126.5-30.5-262.5h-275.5c-29 509 389.5 927.5 898.5 898.5z"/></g><defs><clipPath id="a"><path fill="#fff" d="M0 0h1200v1200H0z"/></clipPath></defs></svg>
